src/pos-icons/keyboard-variant.svg

<svg height="24" viewBox="0 0 24 24" width="24" xmlns="http://www.w3.org/2000/svg"><path d="m6 16h12v2h-12zm0-3v2h-4v-2zm1 2v-2h3v2zm4 0v-2h2v2zm3 0v-2h3v2zm4 0v-2h4v2zm-16-5h3v2h-3zm17 2v-2h3v2zm-1 0h-2v-2h2zm-10 0h-2v-2h2zm4 0h-3v-2h3zm3 0h-2v-2h2zm-13-3v-2h2v2zm3 0v-2h2v2zm3 0v-2h2v2zm3 0v-2h2v2zm3 0v-2h2v2zm3 0v-2h5v2z"/></svg>

<?xml version="1.0" encoding="UTF-8"?><!DOCTYPE svg PUBLIC "-//W3C//DTD SVG 1.1//EN" "http://www.w3.org/Graphics/SVG/1.1/DTD/svg11.dtd"><svg xmlns="http://www.w3.org/2000/svg" xmlns:xlink="http://www.w3.org/1999/xlink" version="1.1" id="mdi-keyboard-variant" width="24" height="24" viewBox="0 0 24 24"><path d="M6,16H18V18H6V16M6,13V15H2V13H6M7,15V13H10V15H7M11,15V13H13V15H11M14,15V13H17V15H14M18,15V13H22V15H18M2,10H5V12H2V10M19,12V10H22V12H19M18,12H16V10H18V12M8,12H6V10H8V12M12,12H9V10H12V12M15,12H13V10H15V12M2,9V7H4V9H2M5,9V7H7V9H5M8,9V7H10V9H8M11,9V7H13V9H11M14,9V7H16V9H14M17,9V7H22V9H17Z" /></svg>
